fs/cloud_words_48_filled.svg

<svg viewBox="0 0 48 48" fill="none" xmlns="http://www.w3.org/2000/svg" height="1em" width="1em">
  <path d="M13.0448 20C13.5501 14.3935 18.262 10 24 10C29.738 10 34.4499 14.3935 34.9552 20H35.25C39.5302 20 43 23.4698 43 27.75C43 32.0302 39.5302 35.5 35.25 35.5H12.75C8.46979 35.5 5 32.0302 5 27.75C5 23.4698 8.46979 20 12.75 20H13.0448ZM20.25 18C19.5596 18 19 18.5596 19 19.25C19 19.9404 19.5596 20.5 20.25 20.5H27.75C28.4404 20.5 29 19.9404 29 19.25C29 18.5596 28.4404 18 27.75 18H20.25ZM11 27.25C11 27.9404 11.5596 28.5 12.25 28.5H20.75C21.4404 28.5 22 27.9404 22 27.25C22 26.5596 21.4404 26 20.75 26H12.25C11.5596 26 11 26.5596 11 27.25ZM27.25 26C26.5596 26 26 26.5596 26 27.25C26 27.9404 26.5596 28.5 27.25 28.5H35.75C36.4404 28.5 37 27.9404 37 27.25C37 26.5596 36.4404 26 35.75 26H27.25Z" fill="#212121"/>
</svg>

<svg viewBox="0 0 48 48" fill="none" xmlns="http://www.w3.org/2000/svg" height="1em" width="1em">
  <path d="M13.045 20C13.55 14.393 18.262 10 24 10s10.45 4.393 10.955 10h.295a7.75 7.75 0 0 1 0 15.5h-22.5a7.75 7.75 0 0 1 0-15.5h.295Zm7.205-2a1.25 1.25 0 1 0 0 2.5h7.5a1.25 1.25 0 1 0 0-2.5h-7.5ZM11 27.25c0 .69.56 1.25 1.25 1.25h8.5a1.25 1.25 0 1 0 0-2.5h-8.5c-.69 0-1.25.56-1.25 1.25ZM27.25 26a1.25 1.25 0 1 0 0 2.5h8.5a1.25 1.25 0 1 0 0-2.5h-8.5Z" fill="#212121"/>
</svg>
